src/icons/file-angular.svg

<?xml version="1.0" encoding="UTF-8" standalone="no"?>
<svg
   version="1.2"
   viewBox="0 0 16 16"
   width="16"
   height="16"
   id="svg1"
   sodipodi:docname="file-angular.svg"
   inkscape:version="1.4 (e7c3feb100, 2024-10-09)"
   xmlns:inkscape="http://www.inkscape.org/namespaces/inkscape"
   xmlns:sodipodi="http://sodipodi.sourceforge.net/DTD/sodipodi-0.dtd"
   xmlns="http://www.w3.org/2000/svg"
   xmlns:svg="http://www.w3.org/2000/svg">
  <defs
     id="defs1" />
  <sodipodi:namedview
     id="namedview1"
     pagecolor="#505050"
     bordercolor="#eeeeee"
     borderopacity="1"
     inkscape:showpageshadow="0"
     inkscape:pageopacity="0"
     inkscape:pagecheckerboard="0"
     inkscape:deskcolor="#505050"
     inkscape:zoom="37.75"
     inkscape:cx="7.986755"
     inkscape:cy="8"
     inkscape:window-width="1316"
     inkscape:window-height="755"
     inkscape:window-x="20"
     inkscape:window-y="20"
     inkscape:window-maximized="0"
     inkscape:current-layer="svg1" />
  <title
     id="title1">file-angular</title>
  <style
     id="style1">
		.s0 { fill: #f1667f } 
		.s1 { fill: #000000 } 
	</style>
  <g
     id="Layer 1">
    <path
       id="path1"
       class="s0"
       d="m 7.9003906,2.3007812 c -0.1333333,0 -0.2670573,0.032943 -0.4003906,0.099609 -0.1333333,0 -0.2341146,0.032943 -0.3007812,0.099609 L 2.9003906,4 C 2.833724,4 2.7658854,4.0329427 2.6992188,4.0996094 L 2.5,4.3007812 C 2.4333333,4.3674479 2.4003906,4.466276 2.4003906,4.5996094 V 4.9003906 L 3,10.699219 c 0,0.133333 0.032943,0.267057 0.099609,0.40039 L 3.3007812,11.5 C 3.3674479,11.633333 3.4333333,11.734115 3.5,11.800781 L 3.9003906,12 7.0996094,13.900391 C 7.2329427,13.967057 7.3666667,14 7.5,14 c 0.1333333,0.06667 0.2670573,0.09961 0.4003906,0.09961 0.1333334,0 0.2670573,-0.03294 0.4003906,-0.09961 0.1333334,0 0.2651042,-0.03294 0.3984376,-0.09961 l 3.1015622,-1.800782 0.298828,-0.298828 C 12.232943,11.734115 12.333724,11.633333 12.400391,11.5 l 0.199218,-0.400391 c 0.06667,-0.133333 0.09961,-0.3 0.09961,-0.5 L 13.400391,4.9003906 V 4.5996094 c 0,-0.066667 -0.03294,-0.1654948 -0.09961,-0.2988282 L 13.099609,4.0996094 C 13.032943,4.0329427 12.934115,4 12.800781,4 L 8.5996094,2.5 C 8.5329427,2.4333333 8.4341146,2.4003906 8.3007812,2.4003906 8.1674479,2.333724 8.033724,2.3007812 7.9003906,2.3007812 Z m -0.2501954,2.5 h 0.5996094 c 0.3333333,0 0.6007812,0.098828 0.8007812,0.2988282 0.2666667,0.2 0.4333333,0.4674479 0.5,0.8007812 l 1.1992192,4 v 0.1992184 0.201172 c 0,0.266667 -0.06589,0.466276 -0.199219,0.59961 -0.2,0.133333 -0.399609,0.199218 -0.5996096,0.199218 -0.3333333,0 -0.6007812,-0.06588 -0.8007812,-0.199218 -0.1333334,-0.2 -0.2321615,-0.434506 -0.2988282,-0.701172 L 8.7498046,9.8007812 H 7.1501952 l -0.099609,0.3984378 c -0.066667,0.266666 -0.2003906,0.501172 -0.4003906,0.701172 -0.1333334,0.133333 -0.3658854,0.199218 -0.6992188,0.199218 -0.2,0 -0.3996094,-0.06588 -0.5996094,-0.199218 C 5.2180337,10.767057 5.1501952,10.567448 5.1501952,10.300781 V 10.099609 9.9003906 l 1.2011718,-4 c 0.066667,-0.3333333 0.2333334,-0.6007812 0.5,-0.8007812 0.2000001,-0.2 0.4654948,-0.2988282 0.7988282,-0.2988282 z m 0.3007812,1.2988282 c 0,0.066667 -0.032943,0.1345052 -0.099609,0.2011718 V 6.5996094 L 7.4509764,8.4003906 h 1 L 8.0505858,6.5996094 c 0,-0.1333334 -0.032943,-0.2321615 -0.099609,-0.2988282 z"
       sodipodi:nodetypes="scccccsccccccccsccccccccscscccsssccccscsccccssscsccccscccccccc" />
  </g>
</svg>

<svg xmlns="http://www.w3.org/2000/svg" width="16" height="16" version="1.2"><path d="M7.9 2.3a.9.9 0 0 0-.4.1q-.2 0-.3.1L2.9 4q-.1 0-.2.1l-.2.2q-.1.1-.1.3v.3l.6 5.8q0 .2.1.4l.2.4q.1.2.2.3l.4.2 3.2 1.9q.2.1.4.1.2.1.4.1a.9.9 0 0 0 .4-.1.9.9 0 0 0 .4-.1l3.1-1.8.3-.3a.66.66 0 0 0 .3-.3l.2-.4q.1-.2.1-.5l.7-5.7v-.3q0-.1-.1-.3l-.2-.2Q13 4 12.8 4L8.6 2.5q-.1-.1-.3-.1a.9.9 0 0 0-.4-.1m-.25 2.5h.6q.5 0 .8.3.4.3.5.8l1.2 4v.4q0 .4-.2.6-.3.2-.599.2-.5 0-.8-.2a2.2 2.2 0 0 1-.3-.7l-.101-.4h-1.6l-.1.4q-.1.4-.4.7-.2.2-.699.2-.3 0-.6-.2-.2-.2-.2-.6v-.4l1.2-4q.1-.5.5-.8.3-.3.8-.3m.301 1.3q0 .1-.1.2v.3l-.4 1.8h1l-.4-1.8q0-.2-.1-.3z" style="fill:#f1667f"/></svg>
